X:1
T:Pea Patch Jig
T:Pea Patch Jig
T:Dan Emmett
C:Dan Emmett
L:1/8
M:2/4
K:D
V:1 treble 
V:1
 E |: (3A/A/A/A z/ A/G/B/ | z/ A/d/f/ e2 | (3f/f/f/f z/ e/d/e/ |1 z/ c/d/B/ A/F/E/D/ :|2 %5
 z/ c/d/B/ AA, |: z/ A/G/E/ C/A,/ z | z/ A/G/E/ C/A,/ z | z/ A/G/E/ C/D/E/F/ | %9
 ^G/E/F/D/ C/A,/ z/ A2 :: _B2 A, z/ A,2 | z/ A/F/D/ C/A,/ z/ A,2 | _B2 A, z/ A,2 | %13
 z/ A/F/D/ C/A,/ z/ A,2 | A/^g/{b}a/e/ c/A/B/^G/ | A/^g/{b}a/e/ c/A/B/^G/ | A/f/{a}g/e/ d/B/G/B/ | %17
 A/f/{a}g/e/ d/B/G/B/ :: A/a/(3a/a/a/ c/a/B/a/ | A/a/(3a/a/a/ c/a/B/a/ | A/g/(3g/g/g/ d/g/B/g/ | %21
 A/g/(3g/g/g/ d/g/B/g/ :| %22

